remix/Map/passport-fill.svg

<svg viewBox="0 0 24 24" fill="currentColor" xmlns="http://www.w3.org/2000/svg"><path d="M20 2C20.5523 2 21 2.44772 21 3V21C21 21.5523 20.5523 22 20 22H4C3.44772 22 3 21.5523 3 21V3C3 2.44772 3.44772 2 4 2H20ZM16 16H8V18H16V16ZM12 6C9.79086 6 8 7.79086 8 10C8 12.2091 9.79086 14 12 14C14.2091 14 16 12.2091 16 10C16 7.79086 14.2091 6 12 6ZM12 8C13.1046 8 14 8.89543 14 10C14 11.1046 13.1046 12 12 12C10.8954 12 10 11.1046 10 10C10 8.89543 10.8954 8 12 8Z"/></svg>

<svg viewBox="0 0 24 24" xmlns="http://www.w3.org/2000/svg"><path fill="none" d="M0 0h24v24H0Z"/><path d="M20 2v0c.55 0 1 .44 1 1v18 0c0 .55-.45 1-1 1H4v0c-.56 0-1-.45-1-1V3v0c0-.56.44-1 1-1h16Zm-4 14H8v2h8v-2ZM12 6v0c-2.21 0-4 1.79-4 4 0 2.2 1.79 4 4 4v0c2.2 0 4-1.8 4-4 0-2.21-1.8-4-4-4Zm0 2v0c1.1 0 2 .89 2 2 0 1.1-.9 2-2 2v0c-1.11 0-2-.9-2-2 0-1.11.89-2 2-2Z"/></svg>
